X:1
T:Alter Pfannhauser Tanz
C:trad.,Hg. Stmk.VLW, J.Pichler "Wer tanzt nach meiner Pfeife"
A:Goessl, Steiermark
N:um 1840
M:3/4
L:1/8
K:G
Bc |\
A2cDdD | B2dDce | AcDcBD | G2BDBc |
A2cDdD | B2dDce | AcDcBD | G4 :|
